static/app-icons/dark-theme/WatsonCandidateAssistant.svg

<svg xmlns="http://www.w3.org/2000/svg" viewBox="0 0 32 32"><defs><linearGradient id="linear-gradient" x1="6" y1="24" x2="17" y2="24" gradientUnits="userSpaceOnUse"><stop offset="0" stop-opacity="0"/><stop offset=".9"/></linearGradient><linearGradient id="linear-gradient-2" y1="32" x2="32" gradientUnits="userSpaceOnUse"><stop offset=".1" stop-color="#be95ff"/><stop offset=".9" stop-color="#4589ff"/></linearGradient><style>.cls-5{fill:#f4f4f4}</style><mask id="mask" x="0" y="0" width="32" height="32" maskUnits="userSpaceOnUse"><path d="M17.736 31L16 30l4-7h6a2 2 0 002-2V7a2 2 0 00-2-2H6a2 2 0 00-2 2v14a2 2 0 002 2h10v2H6a4 4 0 01-4-4V7a4 4 0 014-4h20a4 4 0 014 4v14a4 4 0 01-4 4h-4.835z" fill="#fff"/><path fill="url(#linear-gradient)" d="M6 22h11v4H6z"/></mask></defs><g id="Layer_2" data-name="Layer 2"><g id="Dark_theme_icons" data-name="Dark theme icons"><g mask="url(#mask)"><path fill="url(#linear-gradient-2)" d="M0 0h32v32H0z"/></g><path class="cls-5" d="M10 19v2h2v-2a1 1 0 011-1h6a1 1 0 011 1v2h2v-2a3 3 0 00-3-3h-6a3 3 0 00-3 3zM16 7a4 4 0 104 4 4 4 0 00-4-4zm0 6a2 2 0 112-2 2 2 0 01-2 2z"/></g></g></svg>

<svg xmlns="http://www.w3.org/2000/svg" xmlns:xlink="http://www.w3.org/1999/xlink" viewBox="0 0 32 32"><defs><style>.cls-1{fill:#fff;}.cls-2{fill:url(#linear-gradient);}.cls-3{mask:url(#mask);}.cls-4{fill:url(#linear-gradient-2);}.cls-5{fill:#f4f4f4;}</style><linearGradient id="linear-gradient" x1="6" y1="24" x2="17" y2="24" gradientUnits="userSpaceOnUse"><stop offset="0" stop-opacity="0"/><stop offset="0.9"/></linearGradient><mask id="mask" x="0" y="0" width="32" height="32" maskUnits="userSpaceOnUse"><path class="cls-1" d="M17.736,31,16,30l4-7h6a2,2,0,0,0,2-2V7a2,2,0,0,0-2-2H6A2,2,0,0,0,4,7V21a2,2,0,0,0,2,2H16v2H6a4,4,0,0,1-4-4V7A4,4,0,0,1,6,3H26a4,4,0,0,1,4,4V21a4,4,0,0,1-4,4H21.165Z"/><rect class="cls-2" x="6" y="22" width="11" height="4"/></mask><linearGradient id="linear-gradient-2" y1="32" x2="32" gradientUnits="userSpaceOnUse"><stop offset="0.1" stop-color="#be95ff"/><stop offset="0.9" stop-color="#4589ff"/></linearGradient></defs><g id="Layer_2" data-name="Layer 2"><g id="Dark_theme_icons" data-name="Dark theme icons"><g class="cls-3"><rect class="cls-4" width="32" height="32"/></g><path class="cls-5" d="M10,19v2h2V19a1,1,0,0,1,1-1h6a1,1,0,0,1,1,1v2h2V19a3,3,0,0,0-3-3H13A3,3,0,0,0,10,19Z"/><path class="cls-5" d="M16,7a4,4,0,1,0,4,4A4,4,0,0,0,16,7Zm0,6a2,2,0,1,1,2-2A2,2,0,0,1,16,13Z"/></g></g></svg>
